assets/img/icons/star.svg

<svg width="15" height="15" viewBox="0 0 15 15" fill="none" xmlns="http://www.w3.org/2000/svg">
<path d="M14.6515 5.84188C14.5553 5.54443 14.2915 5.33317 13.9793 5.30503L9.73947 4.92005L8.06292 0.995904C7.9393 0.708315 7.65776 0.522156 7.34495 0.522156C7.03215 0.522156 6.75061 0.708315 6.62699 0.996577L4.95043 4.92005L0.709893 5.30503C0.398319 5.33384 0.135163 5.54443 0.0384405 5.84188C-0.0582818 6.13933 0.0310434 6.46559 0.266741 6.67125L3.47158 9.48191L2.52655 13.6448C2.45739 13.9509 2.5762 14.2673 2.83016 14.4508C2.96667 14.5495 3.12638 14.5997 3.28744 14.5997C3.4263 14.5997 3.56404 14.5622 3.68766 14.4883L7.34495 12.3024L11.0009 14.4883C11.2684 14.6492 11.6057 14.6345 11.8591 14.4508C12.1131 14.2667 12.2318 13.9502 12.1627 13.6448L11.2177 9.48191L14.4225 6.67181C14.6582 6.46559 14.7482 6.13989 14.6515 5.84188Z" fill="#FFC107"/>
</svg>

<svg width="15" height="15" fill="none" xmlns="http://www.w3.org/2000/svg"><path d="M14.652 5.842a.78.78 0 00-.673-.537L9.74 4.92 8.063.996a.781.781 0 00-1.436 0L4.95 4.92l-4.24.385a.78.78 0 00-.443 1.366l3.205 2.81-.945 4.164a.78.78 0 001.16.843l3.658-2.186L11 14.488a.781.781 0 001.162-.844l-.945-4.162 3.204-2.81a.781.781 0 00.23-.83z" fill="#FFC107"/></svg>
